findly-builder/apps/searchassist/src/assets/icons/experiment/winner.svg

<svg width="16" height="16" viewBox="0 0 16 16" fill="none" xmlns="http://www.w3.org/2000/svg">
<path d="M2.46154 0C1.11058 0 0 1.11058 0 2.46154C0 3.12981 0.302885 3.71635 0.677884 4.28846C1.05288 4.86058 1.52404 5.42789 1.98077 6C2.89423 7.14423 3.69231 8.30769 3.69231 9.23077C3.69231 9.57692 3.42308 9.84615 3.07692 9.84615C2.73706 9.84615 2.46154 10.1217 2.46154 10.4615C2.46154 10.8014 2.73706 11.0769 3.07692 11.0769C3.71635 11.0769 4.28846 10.7404 4.61538 10.2404C4.62981 10.274 4.63462 10.3173 4.64423 10.3462C4.97596 11.3317 5.38942 12.1058 5.95192 12.6683C6.35577 13.0721 6.85096 13.3462 7.38462 13.4663V14.7692H5.53846C5.19859 14.7692 4.92308 15.0447 4.92308 15.3846C4.92308 15.7245 5.19859 16 5.53846 16H10.4615C10.8014 16 11.0769 15.7245 11.0769 15.3846C11.0769 15.0447 10.8014 14.7692 10.4615 14.7692H8.61539V13.4663C9.14904 13.3462 9.64423 13.0721 10.0481 12.6683C10.6106 12.1058 11.024 11.3317 11.351 10.3462C11.3654 10.3173 11.3702 10.274 11.3846 10.2404C11.7115 10.7404 12.2837 11.0769 12.9231 11.0769C13.2629 11.0769 13.5385 10.8014 13.5385 10.4615C13.5385 10.1217 13.2629 9.84615 12.9231 9.84615C12.5769 9.84615 12.3077 9.57692 12.3077 9.23077C12.3077 8.30769 13.1058 7.14423 14.0192 6C14.476 5.42789 14.9471 4.86058 15.3221 4.28846C15.6971 3.71635 16 3.12981 16 2.46154C16 1.11058 14.8894 0 13.5385 0C12.6346 0 11.851 0.5 11.4231 1.23077H4.57692C4.14904 0.5 3.36538 0 2.46154 0ZM2.46154 1.23077C3.14904 1.23077 3.69231 1.77404 3.69231 2.46154H3.70673C3.72115 3.96635 3.78365 5.32692 3.90385 6.52404C3.60096 6.07692 3.26923 5.63942 2.94231 5.23077C2.47596 4.64904 2.02404 4.10096 1.70673 3.61538C1.38942 3.12981 1.23077 2.71635 1.23077 2.46154C1.23077 1.77404 1.77404 1.23077 2.46154 1.23077ZM13.5385 1.23077C14.226 1.23077 14.7692 1.77404 14.7692 2.46154C14.7692 2.71635 14.6106 3.12981 14.2933 3.61538C13.976 4.10096 13.524 4.64904 13.0577 5.23077C12.7308 5.63942 12.399 6.07692 12.0962 6.52404C12.2163 5.32692 12.2788 3.96635 12.2933 2.46154H12.3077C12.3077 1.77404 12.851 1.23077 13.5385 1.23077ZM4.99039 2.46154H11.0096C10.9663 5.71154 10.7163 8.36058 10.1827 9.96154C9.89904 10.8221 9.54327 11.4327 9.18269 11.7933C8.81731 12.1587 8.46154 12.3077 8 12.3077C7.53846 12.3077 7.18269 12.1587 6.81731 11.7933C6.45673 11.4327 6.10096 10.8221 5.81731 9.96154C5.28365 8.36058 5.03365 5.71154 4.99039 2.46154Z" fill="#FFDA2D"/>
<path d="M8.44915 11.5991C9.94739 10.9554 10.4615 7.06635 10.4615 3.69141L10.0767 6.76989C9.92563 7.97867 9.4617 9.12709 8.73078 10.1016L8.09231 10.9529C8.03239 11.0328 8 11.13 8 11.2299C8 11.4848 8.21495 11.6997 8.44915 11.5991Z" fill="#FFED96"/>
</svg>

<svg width="16" height="16" fill="none" xmlns="http://www.w3.org/2000/svg"><path d="M2.462 0A2.473 2.473 0 0 0 0 2.462c0 .668.303 1.254.678 1.826.375.573.846 1.14 1.303 1.712.913 1.144 1.711 2.308 1.711 3.23a.607.607 0 0 1-.615.616.615.615 0 0 0 0 1.23c.64 0 1.211-.336 1.538-.836.015.034.02.077.03.106.331.986.744 1.76 1.307 2.322a2.94 2.94 0 0 0 1.433.798v1.303H5.538a.615.615 0 1 0 0 1.231h4.923a.615.615 0 1 0 0-1.23H8.615v-1.304a2.94 2.94 0 0 0 1.433-.798c.563-.562.976-1.336 1.303-2.322.014-.029.02-.072.034-.106.326.5.899.837 1.538.837a.615.615 0 0 0 0-1.23.607.607 0 0 1-.615-.616c0-.923.798-2.087 1.711-3.231.457-.572.928-1.14 1.303-1.712.375-.572.678-1.158.678-1.826A2.473 2.473 0 0 0 13.539 0c-.904 0-1.688.5-2.116 1.23H4.577A2.455 2.455 0 0 0 2.462 0Zm0 1.23c.687 0 1.23.544 1.23 1.232h.015c.014 1.504.077 2.865.197 4.062a20.503 20.503 0 0 0-.962-1.293c-.466-.582-.918-1.13-1.235-1.616-.318-.485-.476-.899-.476-1.153a1.22 1.22 0 0 1 1.23-1.231Zm11.077 0c.687 0 1.23.544 1.23 1.232 0 .254-.158.668-.476 1.153-.317.486-.769 1.034-1.235 1.616a20.36 20.36 0 0 0-.962 1.293c.12-1.197.183-2.558.197-4.062h.015a1.22 1.22 0 0 1 1.23-1.231ZM4.99 2.463h6.02c-.044 3.25-.294 5.899-.827 7.5-.284.86-.64 1.47-1 1.831-.366.366-.721.515-1.183.515-.462 0-.817-.15-1.183-.515-.36-.36-.716-.97-1-1.831-.533-1.601-.783-4.25-.827-7.5Z" fill="#FFDA2D"/><path d="M8.45 11.6c1.497-.645 2.011-4.534 2.011-7.909l-.384 3.079a7 7 0 0 1-1.346 3.332l-.639.85A.462.462 0 0 0 8 11.23c0 .255.215.47.45.37Z" fill="#FFED96"/></svg>
